src/icons/aws-acm.svg

<?xml version="1.0" encoding="UTF-8"?>
<svg xmlns="http://www.w3.org/2000/svg" xmlns:xlink="http://www.w3.org/1999/xlink" width="32" height="32" viewBox="0 0 32 32" version="1.1">
<defs>
<linearGradient id="linear0" gradientUnits="userSpaceOnUse" x1="0" y1="1" x2="1" y2="0" gradientTransform="matrix(32,0,0,32,0,0)">
<stop offset="0" style="stop-color:rgb(74.117649%,3.137255%,8.627451%);stop-opacity:1;"/>
<stop offset="1" style="stop-color:rgb(100%,32.156864%,32.156864%);stop-opacity:1;"/>
</linearGradient>
</defs>
<g id="surface1">
<rect x="0" y="0" width="32" height="32" style="fill:url(#linear0);stroke:none;"/>
<path style=" stroke:none;fill-rule:evenodd;fill:rgb(100%,100%,100%);fill-opacity:1;" d="M 14.359375 15.492188 C 14.472656 15.605469 14.519531 15.769531 14.492188 15.929688 L 14.195312 17.5 L 15.742188 16.570312 C 15.820312 16.523438 15.910156 16.5 16 16.5 C 16.089844 16.5 16.179688 16.523438 16.257812 16.570312 L 17.804688 17.5 L 17.507812 15.925781 C 17.480469 15.765625 17.527344 15.605469 17.640625 15.488281 L 18.96875 14.097656 L 17.175781 13.832031 C 17.019531 13.808594 16.882812 13.714844 16.808594 13.574219 L 15.996094 12.050781 L 15.164062 13.578125 C 15.085938 13.714844 14.953125 13.808594 14.796875 13.835938 L 13.027344 14.101562 Z M 13.007812 18.40625 L 13.460938 15.996094 L 11.640625 14.097656 C 11.511719 13.964844 11.464844 13.769531 11.527344 13.589844 C 11.585938 13.414062 11.742188 13.285156 11.925781 13.257812 L 14.402344 12.882812 L 15.5625 10.761719 C 15.648438 10.601562 15.816406 10.5 16 10.5 L 16.003906 10.5 C 16.183594 10.5 16.355469 10.601562 16.441406 10.765625 L 17.574219 12.878906 L 20.074219 13.25 C 20.257812 13.277344 20.414062 13.40625 20.472656 13.585938 C 20.535156 13.761719 20.492188 13.957031 20.359375 14.09375 L 18.539062 15.992188 L 18.992188 18.40625 C 19.027344 18.601562 18.949219 18.796875 18.785156 18.910156 C 18.625 19.023438 18.414062 19.03125 18.242188 18.929688 L 16 17.582031 L 13.757812 18.929688 C 13.679688 18.976562 13.589844 19 13.5 19 C 13.398438 19 13.300781 18.96875 13.214844 18.910156 C 13.054688 18.796875 12.972656 18.601562 13.007812 18.40625 Z M 6 8.507812 L 26 8.507812 L 26 6.5 L 6 6.5 Z M 27 26 C 27 26.132812 26.949219 26.261719 26.851562 26.351562 C 26.761719 26.449219 26.632812 26.5 26.5 26.5 L 24 26.5 L 24 25.5 L 26 25.5 L 26 9.507812 L 6 9.507812 L 6 25.5 L 20.5 25.5 L 20.5 26.5 L 5.5 26.5 C 5.222656 26.5 5 26.277344 5 26 L 5 6 C 5 5.722656 5.222656 5.5 5.5 5.5 L 26.5 5.5 C 26.773438 5.5 27 5.722656 27 6 Z M 9.5 23.5 L 12 23.5 L 12 22.5 L 9.5 22.5 Z M 13.5 23.5 L 19 23.5 L 19 22.5 L 13.5 22.5 Z M 9.5 21.5 L 12 21.5 L 12 20.5 L 9.5 20.5 Z M 13.5 21.5 L 22.5 21.5 L 22.5 20.5 L 13.5 20.5 Z M 13.5 21.5 "/>
</g>
</svg>

<svg role="img" viewBox="0 0 32 32" xmlns="http://www.w3.org/2000/svg" xmlns:xlink="http://www.w3.org/1999/xlink"><defs><linearGradient gradientTransform="scale(32)" gradientUnits="userSpaceOnUse" id="a" x1="0" x2="1" y1="1" y2="0"><stop offset="0" style="stop-color:rgb(74.117649%,3.137255%,8.627451%);stop-opacity:1"/><stop offset="1" style="stop-color:rgb(100%,32.156864%,32.156864%);stop-opacity:1"/></linearGradient></defs><path d="M0 0h32v32H0z" style="fill:url(#a);stroke:none"/><path d="M14.36 15.492c.113.113.16.278.132.438l-.297 1.57 1.547-.93a.502.502 0 0 1 .516 0l1.547.93-.297-1.574a.501.501 0 0 1 .133-.438l1.328-1.39-1.793-.266a.496.496 0 0 1-.367-.258l-.813-1.523-.832 1.527a.524.524 0 0 1-.367.258l-1.77.266Zm-1.352 2.914.453-2.41-1.82-1.898a.498.498 0 0 1 .285-.84l2.476-.375 1.16-2.121A.497.497 0 0 1 16 10.5h.004c.18 0 .351.102.437.266l1.133 2.113 2.5.371c.184.027.34.156.399.336a.49.49 0 0 1-.114.508l-1.82 1.898.453 2.414a.5.5 0 0 1-.207.504.498.498 0 0 1-.543.02L16 17.582l-2.242 1.348a.502.502 0 0 1-.75-.524M6 8.508h20V6.5H6ZM27 26c0 .133-.05.262-.148.352a.475.475 0 0 1-.352.148H24v-1h2V9.508H6V25.5h14.5v1h-15A.498.498 0 0 1 5 26V6c0-.277.223-.5.5-.5h21c.273 0 .5.223.5.5ZM9.5 23.5H12v-1H9.5Zm4 0H19v-1h-5.5Zm-4-2H12v-1H9.5Zm4 0h9v-1h-9Zm0 0" style="stroke:none;fill-rule:evenodd;fill:rgb(100%,100%,100%);fill-opacity:1"/></svg>
